client/public/assets/icons/custom/custom83.svg

<?xml version="1.0"?><svg xmlns="http://www.w3.org/2000/svg" width="100" height="100" viewBox="0 0 100 100"><g fill="#fff"><path d="m74.6 39.3c0.4 0.4 1 0.4 1.4 0l1.4-1.4c3.4-3.4 3.5-8.6 0.2-11.9 0 0-4.3-4.4-4.4-4.4-3.4-2.8-8.1-1.5-10.8 1.2l-1.4 1.4c-0.4 0.4-0.4 1 0 1.4l13.6 13.7z m-18-9.5c-0.4-0.4-1-0.4-1.4 0l-27.5 27.3c-1.5 1.5-2.6 3.3-3.3 5.4l-4.2 13.5c-0.3 0.8-0.2 1.8 0.2 2.5 0.6 1 1.6 1.5 2.6 1.5 0.3 0 0.6 0 0.9-0.1 0 0 9.2-2.9 13.7-4.3 2-0.6 3.8-1.7 5.3-3.2l27.4-27.4c0.4-0.4 0.4-1 0-1.4l-13.7-13.8z m-20.8 40.1c-2.1 0.7-5.4 1.7-8.2 2.6l2.6-8.2c0.3-1.1 0.9-2 1.7-2.8l6.7 6.7c-0.8 0.8-1.8 1.4-2.8 1.7z"></path></g></svg>

<?xml version="1.0" encoding="utf-8"?>
<!-- Generator: Adobe Illustrator 16.0.0, SVG Export Plug-In . SVG Version: 6.00 Build 0)  -->
<!DOCTYPE svg PUBLIC "-//W3C//DTD SVG 1.1//EN" "http://www.w3.org/Graphics/SVG/1.1/DTD/svg11.dtd">
<svg version="1.1" id="Layer_1" xmlns="http://www.w3.org/2000/svg" xmlns:xlink="http://www.w3.org/1999/xlink" x="0px" y="0px"
	 width="100px" height="100px" viewBox="0 0 100 100" enable-background="new 0 0 100 100" xml:space="preserve">
<g>
	<path fill="#FFFFFF" d="M74.6,39.3c0.4,0.4,1,0.4,1.4,0l1.4-1.4C80.8,34.5,80.9,29.3,77.6,26c0,0-4.3-4.4-4.399-4.4
		c-3.4-2.8-8.101-1.5-10.8,1.2L61,24.2c-0.4,0.4-0.4,1,0,1.4L74.6,39.3z"/>
	<path fill="#FFFFFF" d="M56.6,29.8c-0.399-0.4-1-0.4-1.399,0L27.7,57.1c-1.5,1.5-2.6,3.301-3.3,5.4L20.2,76
		c-0.3,0.8-0.2,1.8,0.2,2.5C21,79.5,22,80,23,80c0.3,0,0.6,0,0.9-0.1c0,0,9.2-2.9,13.7-4.301c2-0.6,3.8-1.699,5.3-3.199L70.3,45
		c0.4-0.4,0.4-1,0-1.4L56.6,29.8z M35.8,69.9c-2.1,0.699-5.4,1.699-8.2,2.6l2.6-8.2c0.3-1.1,0.9-2,1.7-2.8l6.7,6.7
		C37.8,69,36.8,69.6,35.8,69.9z"/>
</g>
</svg>
